resources/svg/eps.svg

<svg width="15" height="15" viewBox="0 0 15 15" fill="none" xmlns="http://www.w3.org/2000/svg">
<path d="M7 8H8V7H7V8Z" fill="black"/>
<path fill-rule="evenodd" clip-rule="evenodd" d="M1 1.5C1 0.671573 1.67157 0 2.5 0H10.7071L14 3.29289V13.5C14 14.3284 13.3284 15 12.5 15H2.5C1.67157 15 1 14.3284 1 13.5V1.5ZM5 6H2V11H5V10H3V9H5V8H3V7H5V6ZM6 6H9V9H7V11H6V6ZM10 6H13V7H11V8H13V11H10V10H12V9H10V6Z" fill="black"/>
</svg>

<svg viewBox="0 0 15 15" fill="none" xmlns="http://www.w3.org/2000/svg" fill="currentColor"><path d="M7 8h1V7H7v1z" fill="currentColor"/><path fill-rule="evenodd" clip-rule="evenodd" d="M1 1.5A1.5 1.5 0 012.5 0h8.207L14 3.293V13.5a1.5 1.5 0 01-1.5 1.5h-10A1.5 1.5 0 011 13.5v-12zM5 6H2v5h3v-1H3V9h2V8H3V7h2V6zm1 0h3v3H7v2H6V6zm4 0h3v1h-2v1h2v3h-3v-1h2V9h-2V6z" fill="currentColor"/></svg>
